X: 567
T: Dong bing
L: 1/8
M: 2/4
K: F
A c d c/ d/ [I:setbarnb 1]| 
f dc2 | 
A> c d f | 
c2z2 | 
A c d c/ d/ | 
f dc2 | 
c> A G c | 
F> AC2 | 
c> A G c | 
F> AC2 | 
BG2D | 
C4 | 
c A/ A/ G c | 
F4 | 
c A/ A/ G A | 
c Ac2 | 
BG2D | 
C4 |]

@@@ Tune index: 9441
